X: 27890
T: Mountain Dew, The
R: reel
M: 4/4
K: Gmajor
G2 GB dGBd|ed{c}BG AGED|GFGB dGBd|gbag efg2|
~G3B d2 B/c/d|edBG AGED|GFGB dGBd|g/a/b ag efge||
d~g3 b~g3|agbg ageg|d~g3 b~g3|gbag efge|
d~g3 b~g3|agbg ageg|bgaf gfed|e/f/g af gedB||

